X:1
T:Guerrero, 77.77
T:Guerrero, 77.77
T:John Harrison Tenney, 1878
T:Public Domain Courtesy of the Cyber Hymnal™
C:John Harrison Tenney, 1878
Z:Public Domain
Z:Courtesy of the Cyber Hymnal™
%%score ( 1 2 ) ( 3 4 )
L:1/8
Q:1/4=148
M:6/4
K:Eb
V:1 treble 
V:2 treble 
V:3 bass 
V:4 bass 
V:1
 [EG]4 [EG]2 [EG]4 [GB]2 | [GB]4 [FA]2 [FA]6 | [DF]4 [DF]2 [DF]4 [FA]2 | [FA]4 [EG]2 [EG]6 | %4
 [GB]4 [GB]2 [Ac]4 [Ad]2 | [Ge]4 [Ge]2 [Fd]6 | [Ge]4 [Ac]2 [GB]4 [FA]2 | [EG]6 [DF]6 | E6- E4 |] %9
V:2
 x12 | x12 | x12 | x12 | x12 | x12 | x12 | x12 | E6- E4 |] %9
V:3
 [E,B,]4 [E,B,]2 [E,B,]4 [E,B,]2 | [B,,B,]4 [B,,B,]2 [B,,B,]6 | %2
 [B,,B,]4 [B,,B,]2 [B,,B,]4 [B,,B,]2 | [E,B,]4 [E,B,]2 [E,B,]6 | [E,E]4 [E,E]2 [A,E]4 [F,B,]2 | %5
 [E,B,]4 [A,C]2 B,6 | [E,B,]4 [F,D]2 [G,E]4 [A,C]2 | B,6 [B,,A,]6 | [E,G,]6- [E,G,]4 |] %9
V:4
 x12 | x12 | x12 | x12 | x12 | x6 B,6 | x12 | B,6 x6 | x10 |] %9

